X:1
T:Title
%%score [ ( 1 2 ) ( 3 4 ) ] { ( 5 6 ) | ( 7 8 ) }
L:1/8
Q:1/4=120
M:4/4
K:D
V:1 treble nm="Midi_74" snm=" "
V:2 treble 
V:3 bass nm="Midi_74"
V:4 bass 
V:5 treble nm="Org."
V:6 treble 
V:7 bass 
V:8 bass 
V:1
 A8 | A4 A4 | A8 || (D6 E2) | (F2 G2) (A2 B2) | =c4"^William Henry Havergal\n(1793-1870)" B4 | %6
{B} A8 || d8 | d4 d4 | d8 || (G6 A2) | (B2 c2) d4 | F4 E4 | D8 |] %14
V:2
 (C6 D2) | (E2 D2) (C2 D2) | C8 || (D6 C2) | (D2 E2) (F2 G2) | A4 G4 |{G} F8 || (F6 G2) | %8
 (A2 G2) (F2 G2) | F8 || (G6 F2) | (G2 E2) (D2 E2) | D4 C4 | D8 |] %14
V:3
 A,8 | A,4 A,4 | A,8 || A,8 | A,4 D4 | (D2 A,2) (B,2 C2) | D8 || D8 | D4 D4 | D8 || (D6 =C2) | %11
 (B,2 A,2) (A,2 B,2) | A,4 (A,2 G,2) | F,8 |] %14
V:4
 (A,,6 B,,2) | (C,2 D,2) (E,2 F,2) | G,8 || (F,6 E,2) | D,4 D,4 | F,4 G,4 | D,8 || (D,6 E,2) | %8
 (F,2 G,2) (A,2 B,2) | =C8 || (B,6 A,2) | G,4 (F,2 G,2) | A,4 A,,4 | D,8 |] %14
V:5
 A8 | A4 A4 | A8 || D6 E2 | F2 G2 A2 B2 | =c4 B4 |{B} A8 || [Dd]8 | [Dd]4 [Dd]4 | [Dd]8 || %10
 G6 [FA]2 | B2 c2 d4 | F4 E4 | D8 |] %14
V:6
 C6 D2 | E2 D2 C2 D2 | C8 || D6 C2 | D2 E2 F2 G2 | A4 G4 |{G} F8 || F6 G2 | A2 G2 F2 G2 | F8 || %10
 D8 | [DG]2 [EA]2 [DA]2 [EG]2 | D4 C4 | D8 |] %14
V:7
 A,8 | A,4 A,4 | A,8 || A,8 | A,4 D4 | D2 A,2 B,2 C2 | D8 || x8 | x8 | x8 || x8 | x8 | x4 A,2 G,2 | %13
 x8 |] %14
V:8
 A,,6 B,,2 | C,2 D,2 E,2 F,2 | G,8 || F,6 E,2 | D,4 D,4 | F,4 G,4 | D,8 || D,6 E,2 | %8
 F,2 G,2 A,2 B,2 | =C8 || B,6 A,2 | G,4 F,2 G,2 | A,4 A,,4 | [D,F,]8 |] %14

